packages/bezier-icons/icons/hand-thumbup.svg

<svg width="24" height="24" viewBox="0 0 24 24" fill="none" xmlns="http://www.w3.org/2000/svg">
<path fill-rule="evenodd" clip-rule="evenodd" d="M18.2502 5.96675C19.5612 5.96675 20.7902 6.60975 21.5382 7.68875C22.2852 8.76675 22.4552 10.1438 21.9952 11.3717L19.7452 17.3717C19.1632 18.9237 17.6582 19.9667 16.0002 19.9667H13.3232C12.3182 19.9667 11.3352 19.7767 10.4002 19.4037C7.72718 18.3347 6.00018 15.7828 6.00018 12.9038V12.1278C6.00018 10.2587 6.72818 8.49975 8.05018 7.17775L13.5192 1.70875C14.4642 0.76375 16.1112 0.76375 17.0552 1.70875C18.0292 2.68375 18.0292 4.26875 17.0552 5.24375L16.3322 5.96675H18.2502ZM20.1222 10.6987L17.8722 16.6997C17.5812 17.4747 16.8292 17.9967 16.0002 17.9967H13.3232C12.5732 17.9967 11.8402 17.8547 11.1432 17.5767C9.23418 16.8127 8.00018 14.9907 8.00018 12.9337V12.1577C8.00018 10.8217 8.52018 9.56574 9.46418 8.62174L14.9342 3.15274C15.0612 3.02574 15.2102 3.00674 15.2872 3.00674C15.3652 3.00674 15.5132 3.02474 15.6412 3.15274C15.8352 3.34774 15.8352 3.66474 15.6412 3.85974L13.3792 6.12174C13.0652 6.43774 12.9732 6.90874 13.1442 7.31974C13.3152 7.73074 13.7142 7.99674 14.1592 7.99674H18.2502C18.9152 7.99674 19.5152 8.30974 19.8932 8.85674C20.2732 9.40474 20.3562 10.0757 20.1222 10.6987ZM2.00018 9.8C2.00018 9.51997 2.00018 9.37996 2.05468 9.273C2.10262 9.17892 2.17911 9.10243 2.27319 9.0545C2.38014 9 2.52016 9 2.80018 9H4.20018C4.48021 9 4.62022 9 4.72718 9.0545C4.82126 9.10243 4.89775 9.17892 4.94569 9.273C5.00018 9.37996 5.00018 9.51997 5.00018 9.8V18.2C5.00018 18.48 5.00018 18.62 4.94569 18.727C4.89775 18.8211 4.82126 18.8976 4.72718 18.9455C4.62022 19 4.48021 19 4.20018 19H2.80018C2.52016 19 2.38014 19 2.27319 18.9455C2.17911 18.8976 2.10262 18.8211 2.05468 18.727C2.00018 18.62 2.00018 18.48 2.00018 18.2V9.8Z" fill="#313234"/>
</svg>

<svg xmlns="http://www.w3.org/2000/svg" width="24" height="24" fill="none" viewBox="0 0 24 24"><path fill="#313234" fill-rule="evenodd" d="M18.25 5.967a4 4 0 0 1 3.745 5.405l-2.25 6A4.02 4.02 0 0 1 16 19.967h-2.677a7.9 7.9 0 0 1-2.923-.563 6.97 6.97 0 0 1-4.4-6.5v-.776c0-1.87.728-3.628 2.05-4.95l5.47-5.47c.944-.944 2.591-.944 3.535 0 .974.976.974 2.56 0 3.536l-.723.723zm1.872 4.732-2.25 6A2.01 2.01 0 0 1 16 17.998h-2.677c-.75 0-1.483-.142-2.18-.42A4.98 4.98 0 0 1 8 12.934v-.776c0-1.336.52-2.592 1.464-3.536l5.47-5.47a.5.5 0 0 1 .707 0 .5.5 0 0 1 0 .708L13.38 6.122a1.098 1.098 0 0 0 .78 1.875h4.091c.665 0 1.265.313 1.643.86.38.548.463 1.219.23 1.842M2 9.8c0-.28 0-.42.055-.527a.5.5 0 0 1 .218-.218C2.38 9 2.52 9 2.8 9h1.4c.28 0 .42 0 .527.055a.5.5 0 0 1 .219.218C5 9.38 5 9.52 5 9.8v8.4c0 .28 0 .42-.054.527a.5.5 0 0 1-.219.218C4.62 19 4.48 19 4.2 19H2.8c-.28 0-.42 0-.527-.055a.5.5 0 0 1-.218-.218C2 18.62 2 18.48 2 18.2z" clip-rule="evenodd"/></svg>
